modules/stroke-7/icons/hourglass.svg

<?xml version="1.0" encoding="utf-8"?>
<!-- Generated by IcoMoon.io -->
<!DOCTYPE svg PUBLIC "-//W3C//DTD SVG 1.1//EN" "http://www.w3.org/Graphics/SVG/1.1/DTD/svg11.dtd">
<svg version="1.1" xmlns="http://www.w3.org/2000/svg" xmlns:xlink="http://www.w3.org/1999/xlink" width="19" height="32" viewBox="0 0 19 32">
<g id="icomoon-ignore">
</g>
<path d="M15.947 10.080v-6.347h2.72v-1.067h-18.667v1.067h2.667v6.347c0 1.76 0.693 3.893 5.387 6.187-4 1.92-5.387 3.627-5.387 6.453v5.547h-2.667v1.067h18.667v-1.067h-2.72v-5.547c0-2.827-1.387-4.533-5.387-6.507 4.693-2.24 5.387-4.373 5.387-6.133zM14.88 22.72v5.547h-11.147v-5.547c0-2.24 0.907-3.787 5.6-5.92 4.64 2.187 5.547 3.733 5.547 5.92zM9.28 15.68c-4.907-2.24-5.547-4.107-5.547-5.6v-6.347h11.147v6.347c0 1.493-0.693 3.36-5.6 5.6z" fill="#000000"></path>
</svg>

<svg xmlns="http://www.w3.org/2000/svg" width="19" height="32"><path d="M15.947 10.08V3.733h2.72V2.666H0v1.067h2.667v6.347c0 1.76.693 3.893 5.387 6.187-4 1.92-5.387 3.627-5.387 6.453v5.547H0v1.067h18.667v-1.067h-2.72V22.72c0-2.827-1.387-4.533-5.387-6.507 4.693-2.24 5.387-4.373 5.387-6.133zM14.88 22.72v5.547H3.733V22.72c0-2.24.907-3.787 5.6-5.92 4.64 2.187 5.547 3.733 5.547 5.92zm-5.6-7.04c-4.907-2.24-5.547-4.107-5.547-5.6V3.733H14.88v6.347c0 1.493-.693 3.36-5.6 5.6z"/></svg>
